X: 40974
T: Trip To Dingle, The
R: polka
M: 2/4
K: Dmajor
|:DE/F/ AA|AB F2-|Fd BA|B/d/B/A/ FD|
B2 AF|DE FA-|AB FE|1 D2 DA:|2 D2 dc||
|:B2 AB|de f2|ed/e/ fe|ed dA|B2 AB|
[1 de fa-|ab fd|ef d2:|2 de fa-|ab fe|d2- d2||

